src/raw/all-wheel-drive/icon_32.svg

<svg width="32" height="32" viewBox="0 0 32 32" fill="none" xmlns="http://www.w3.org/2000/svg">
<path d="M1.3335 2.66667C1.3335 1.93029 1.93045 1.33334 2.66683 1.33334H5.3335C6.06988 1.33334 6.66683 1.93029 6.66683 2.66667V9.33334C6.66683 10.0697 6.06988 10.6667 5.3335 10.6667H2.66683C1.93045 10.6667 1.3335 10.0697 1.3335 9.33334V2.66667Z" stroke="#71717A" stroke-width="1.5" stroke-linecap="round" stroke-linejoin="round"/>
<path d="M1.3335 22.6667C1.3335 21.9303 1.93045 21.3333 2.66683 21.3333H5.3335C6.06988 21.3333 6.66683 21.9303 6.66683 22.6667V29.3333C6.66683 30.0697 6.06988 30.6667 5.3335 30.6667H2.66683C1.93045 30.6667 1.3335 30.0697 1.3335 29.3333V22.6667Z" stroke="#71717A" stroke-width="1.5" stroke-linecap="round" stroke-linejoin="round"/>
<path d="M25.3335 2.66667C25.3335 1.93029 25.9304 1.33334 26.6668 1.33334H29.3335C30.0699 1.33334 30.6668 1.93029 30.6668 2.66667V9.33334C30.6668 10.0697 30.0699 10.6667 29.3335 10.6667H26.6668C25.9304 10.6667 25.3335 10.0697 25.3335 9.33334V2.66667Z" stroke="#71717A" stroke-width="1.5" stroke-linecap="round" stroke-linejoin="round"/>
<path d="M25.3335 22.6667C25.3335 21.9303 25.9304 21.3333 26.6668 21.3333H29.3335C30.0699 21.3333 30.6668 21.9303 30.6668 22.6667V29.3333C30.6668 30.0697 30.0699 30.6667 29.3335 30.6667H26.6668C25.9304 30.6667 25.3335 30.0697 25.3335 29.3333V22.6667Z" stroke="#71717A" stroke-width="1.5" stroke-linecap="round" stroke-linejoin="round"/>
<path d="M25.3337 26H6.66699" stroke="#71717A" stroke-width="1.5" stroke-linecap="round" stroke-linejoin="round"/>
<path d="M13.3335 2.66667L18.6668 2.66667" stroke="#71717A" stroke-width="1.5" stroke-linecap="round" stroke-linejoin="round"/>
<path d="M13.3335 29.3333H18.6668" stroke="#71717A" stroke-width="1.5" stroke-linecap="round" stroke-linejoin="round"/>
<path d="M16.0005 6V26" stroke="#71717A" stroke-width="1.5" stroke-linecap="round" stroke-linejoin="round"/>
<path d="M25.3337 6L6.66699 6" stroke="#71717A" stroke-width="1.5" stroke-linecap="round" stroke-linejoin="round"/>
</svg>

<svg xmlns="http://www.w3.org/2000/svg" width="32" height="32" fill="none" viewBox="0 0 32 32">
  <path stroke="#3F3F46" stroke-linecap="round" stroke-linejoin="round" stroke-width="2"
    d="M1.333 2.667c0-.737.597-1.333 1.334-1.333h2.667c.736 0 1.333.596 1.333 1.333v6.667c0 .736-.597 1.333-1.333 1.333H2.667a1.333 1.333 0 0 1-1.333-1.333V2.667ZM1.333 22.667c0-.737.597-1.334 1.334-1.334h2.667c.736 0 1.333.597 1.333 1.334v6.666c0 .737-.597 1.334-1.333 1.334H2.667a1.333 1.333 0 0 1-1.333-1.334v-6.666ZM25.334 2.667c0-.737.596-1.333 1.333-1.333h2.666c.737 0 1.334.596 1.334 1.333v6.667c0 .736-.597 1.333-1.334 1.333h-2.666a1.333 1.333 0 0 1-1.334-1.333V2.667ZM25.334 22.667c0-.737.596-1.334 1.333-1.334h2.666c.737 0 1.334.597 1.334 1.334v6.666c0 .737-.597 1.334-1.334 1.334h-2.666a1.333 1.333 0 0 1-1.334-1.334v-6.666ZM25.334 26H6.667M13.334 2.667h5.333M13.334 29.334h5.333M16.001 6v20M25.334 6H6.667" />
</svg>
